public/images/ai24.svg

<svg width="100" height="100" viewBox="0 0 100 100" fill="none" xmlns="http://www.w3.org/2000/svg">
<mask id="mask0_1_7471" style="mask-type:luminance" maskUnits="userSpaceOnUse" x="50" y="24" width="13" height="29">
<path d="M62.6938 31.1086L50.5391 24.1108V52.865L55.4001 50.0251V41.9313L59.0733 44.0657L59.0207 38.5412L55.4001 36.4112V33.1853L62.6938 37.5028V31.1086Z" fill="white"/>
</mask>
<g mask="url(#mask0_1_7471)">
<path d="M36.1753 23.9999H65.9812V52.9227H36.1753V23.9999Z" fill="url(#paint0_linear_1_7471)"/>
</g>
<mask id="mask1_1_7471" style="mask-type:luminance" maskUnits="userSpaceOnUse" x="37" y="24" width="13" height="29">
<path d="M37.3106 31.1086L49.4609 24.1108V52.865L44.5999 50.0251V33.1853L37.3106 37.5028V31.1086Z" fill="white"/>
</mask>
<g mask="url(#mask1_1_7471)">
<path d="M36.0132 23.9999H65.819V52.9227H36.0132V23.9999Z" fill="url(#paint1_linear_1_7471)"/>
</g>
<path d="M12.2736 64.4199H7.89042V76.7692H5.38322V64.4199H1V62.4142H12.2736V64.4199Z" fill="#425066"/>
<path d="M15.2279 76.9511C14.5548 76.9756 13.8838 76.8616 13.2555 76.616C12.6271 76.3704 12.0545 75.9983 11.5723 75.5223C11.0941 75.0124 10.7225 74.41 10.48 73.7512C10.2375 73.0924 10.1289 72.3907 10.1609 71.6884V71.3777C10.1448 70.3909 10.3564 69.4139 10.779 68.5245C11.166 67.7255 11.7598 67.0477 12.4972 66.5632C13.2329 66.0855 14.091 65.8371 14.9649 65.8488C16.4202 65.8488 17.5204 66.2925 18.3137 67.2332C19.1071 68.174 19.5016 69.4519 19.5016 71.1559V72.1365H12.5849C12.6235 72.9176 12.9341 73.6596 13.4615 74.231C13.7102 74.4929 14.0125 74.6966 14.3472 74.8276C14.6818 74.9587 15.0408 75.0141 15.3989 74.9898C15.9113 75.0022 16.4189 74.8873 16.8774 74.6553C17.3358 74.4232 17.7312 74.081 18.0288 73.6586L19.3043 74.9055C18.8843 75.5229 18.3175 76.0234 17.6562 76.3609C16.9205 76.7918 16.0768 76.9969 15.2279 76.9511ZM14.9649 67.8101C14.6675 67.7916 14.3698 67.8424 14.0947 67.9586C13.8197 68.0747 13.5746 68.2532 13.3782 68.4801C12.9332 69.0221 12.6706 69.6936 12.6287 70.3971H17.1653V70.2196C17.1701 69.5514 16.9523 68.9012 16.5473 68.3736C16.1054 67.9937 15.5401 67.7929 14.9606 67.8101H14.9649ZM23.5078 66.0706L23.5955 67.3175C23.9635 66.8561 24.432 66.487 24.9642 66.2391C25.4965 65.9913 26.0781 65.8713 26.6637 65.8887C28.8554 65.8887 29.9687 67.18 30.0125 69.7226V76.7692H27.6456V69.8602C27.6885 69.317 27.5325 68.7768 27.2073 68.3426C27.0178 68.1671 26.7948 68.0328 26.552 67.9481C26.3093 67.8633 26.0519 67.83 25.7959 67.85C25.3517 67.8319 24.9118 67.9441 24.5292 68.1732C24.1466 68.4023 23.8376 68.7385 23.6393 69.1413V76.7203H21.2592V66.0263L23.5078 66.0706ZM37.6919 73.876C37.6963 73.6798 37.6496 73.4859 37.5565 73.3137C37.4634 73.1416 37.3272 72.9973 37.1616 72.8953C36.6291 72.5961 36.0466 72.399 35.4433 72.314C34.7489 72.1773 34.0744 71.9521 33.4358 71.644C32.248 71.0627 31.6825 70.2151 31.6825 69.1457C31.6867 68.6964 31.7918 68.2539 31.9901 67.8517C32.1883 67.4496 32.4743 67.0985 32.8266 66.825C33.6583 66.1804 34.6859 65.8494 35.7326 65.8887C36.8224 65.8292 37.898 66.1608 38.7702 66.825C39.1339 67.1126 39.4252 67.4832 39.6202 67.9067C39.8152 68.3301 39.9085 68.7942 39.8923 69.2611H37.5122C37.5134 69.0405 37.4665 68.8223 37.3748 68.6221C37.2831 68.4219 37.149 68.2446 36.9818 68.103C36.6012 67.779 36.11 67.6196 35.6143 67.6592C35.1635 67.6451 34.719 67.7688 34.3388 68.0142C34.1871 68.13 34.0655 68.2814 33.9846 68.4553C33.9037 68.6292 33.8657 68.8205 33.8741 69.0126C33.8729 69.1795 33.9122 69.3441 33.9886 69.4919C34.0651 69.6397 34.1763 69.7662 34.3125 69.8602C34.8926 70.166 35.5169 70.3772 36.1622 70.4858C36.9247 70.6317 37.6627 70.8872 38.3538 71.2446C38.8338 71.4716 39.2443 71.8258 39.5416 72.2697C39.9036 72.8868 40.023 73.6192 39.876 74.3213C39.729 75.0234 39.3264 75.6438 38.7483 76.0592C37.9526 76.5642 37.047 76.8647 36.1103 76.9343C35.1737 77.0039 34.2345 76.8406 33.3745 76.4585C32.7374 76.1856 32.188 75.7385 31.7877 75.1673C31.4297 74.6448 31.2302 74.0279 31.2135 73.3923H33.506C33.506 73.6408 33.5617 73.8861 33.6687 74.1097C33.7757 74.3333 33.9314 74.5295 34.124 74.6836C34.5738 75.0041 35.1178 75.1606 35.6669 75.1273C36.162 75.156 36.654 75.0323 37.0783 74.7723C37.2603 74.7089 37.4181 74.5891 37.529 74.4297C37.6399 74.2704 37.6985 74.0798 37.6963 73.8849L37.6919 73.876ZM41.2599 71.3334C41.239 70.3603 41.451 69.3966 41.8779 68.5245C42.2515 67.7271 42.8472 67.0578 43.5917 66.5987C44.3663 66.1421 45.2512 65.9132 46.1472 65.9375C46.7906 65.9094 47.4327 66.0181 48.0321 66.2566C48.6316 66.495 49.175 66.858 49.6274 67.322C50.5455 68.3324 51.0636 69.65 51.0827 71.0228V71.604C51.0986 72.5766 50.8868 73.5392 50.4646 74.4129C50.1022 75.2168 49.5017 75.8868 48.7464 76.3299C47.9591 76.7953 47.0585 77.0275 46.1472 76.9999C45.4774 77.0326 44.809 76.9124 44.1914 76.6481C43.5738 76.3839 43.0228 75.9824 42.5792 75.4734C41.7026 74.4928 41.2642 73.1527 41.2116 71.4798L41.2599 71.3334ZM43.5961 71.5552C43.5421 72.466 43.772 73.371 44.2536 74.1422C44.636 74.6416 45.1974 74.9682 45.816 75.0513C46.4347 75.1344 47.0608 74.9672 47.5586 74.586C47.7257 74.461 47.8734 74.3114 47.9969 74.1422C48.4898 73.3102 48.7207 72.3459 48.6587 71.3777C48.7072 70.4607 48.4595 69.5526 47.953 68.7908C47.5808 68.2936 47.0311 67.9636 46.4216 67.8716C45.8122 67.7795 45.1913 67.9327 44.6919 68.2982C44.52 68.4348 44.3574 68.583 44.2054 68.7419C43.766 69.6109 43.5546 70.5797 43.5917 71.5552H43.5961ZM58.1747 68.2982C57.8542 68.2466 57.5305 68.2169 57.206 68.2095C56.1058 68.2095 55.4001 68.6088 55.0144 69.4564V76.7692H52.6343V66.0706H54.8785L54.9224 67.2732C55.1547 66.8429 55.4998 66.4859 55.9198 66.2416C56.3398 65.9973 56.8183 65.8752 57.3024 65.8887C57.5866 65.8893 57.869 65.9342 58.1396 66.0218L58.1835 68.2938L58.1747 68.2982ZM68.0632 70.6633H62.3651V76.7736H59.8973V62.4142H68.9399V64.4199H62.3651V68.702H68.0632V70.6633ZM72.7752 76.7736H70.3951V62.3699H72.7752V76.7736ZM74.4934 71.3334C74.4725 70.3603 74.6846 69.3966 75.1115 68.5245C75.4862 67.7265 76.0835 67.0571 76.8297 66.5987C77.6033 66.139 78.4883 65.907 79.3851 65.9286C80.0285 65.9006 80.6706 66.0093 81.2701 66.2477C81.8695 66.4862 82.4129 66.8491 82.8654 67.3131C83.7835 68.3236 84.3016 69.6411 84.3206 71.0139V71.5952C84.3302 72.5623 84.1344 73.5202 83.7464 74.404C83.3839 75.208 82.7835 75.8779 82.0282 76.321C81.2409 76.7865 80.3402 77.0186 79.4289 76.991C78.7599 77.0248 78.0919 76.906 77.4743 76.6433C76.8568 76.3806 76.3054 75.9808 75.861 75.4734C74.9224 74.3653 74.4337 72.9382 74.4934 71.4798V71.3467V71.3334ZM76.8735 71.5552C76.8207 72.4665 77.0523 73.3715 77.5354 74.1422C77.7479 74.4468 78.0327 74.6922 78.3637 74.8559C78.6947 75.0195 79.061 75.0961 79.4289 75.0785C79.7916 75.1027 80.1541 75.0288 80.4792 74.8642C80.8042 74.6997 81.0802 74.4505 81.2786 74.1422C81.7716 73.3102 82.0025 72.3459 81.9405 71.3777C81.989 70.4607 81.7413 69.5526 81.2348 68.7908C80.8626 68.2936 80.3129 67.9636 79.7034 67.8716C79.0939 67.7795 78.4731 67.9327 77.9737 68.2982C77.8018 68.4348 77.6392 68.583 77.4872 68.7419C77.0331 69.605 76.8266 70.5795 76.891 71.5552H76.8735ZM95.02 73.4722L96.6944 66.115H98.9868L96.1377 76.8047H94.2004L91.9562 69.4475L89.7076 76.8047H87.7877L84.8816 66.1017H87.2179L88.9361 73.4145L91.0927 66.1017H92.8986L95.0551 73.4589L95.02 73.4722Z" fill="#425066"/>
<defs>
<linearGradient id="paint0_linear_1_7471" x1="36.1753" y1="38.4613" x2="65.9856" y2="38.4613" gradientUnits="userSpaceOnUse">
<stop stop-color="#FF6F00"/>
<stop offset="1" stop-color="#FFA800"/>
</linearGradient>
<linearGradient id="paint1_linear_1_7471" x1="36.0132" y1="38.4613" x2="65.8234" y2="38.4613" gradientUnits="userSpaceOnUse">
<stop stop-color="#FF6F00"/>
<stop offset="1" stop-color="#FFA800"/>
</linearGradient>
</defs>
</svg>

<svg xmlns="http://www.w3.org/2000/svg" width="100" height="100" fill="none"><mask id="a" width="13" height="29" x="50" y="24" maskUnits="userSpaceOnUse" style="mask-type:luminance"><path fill="#fff" d="M62.694 31.109 50.539 24.11v28.754l4.861-2.84v-8.094l3.673 2.135-.052-5.525-3.62-2.13v-3.226l7.293 4.318z"/></mask><g mask="url(#a)"><path fill="url(#b)" d="M36.175 24h29.806v28.923H36.175z"/></g><mask id="c" width="13" height="29" x="37" y="24" maskUnits="userSpaceOnUse" style="mask-type:luminance"><path fill="#fff" d="m37.31 31.109 12.15-6.998v28.754l-4.86-2.84v-16.84l-7.29 4.318z"/></mask><g mask="url(#c)"><path fill="url(#d)" d="M36.013 24H65.82v28.923H36.013z"/></g><path fill="#425066" d="M12.274 64.42H7.89v12.35H5.383V64.42H1v-2.006h11.274z"/><path fill="#425066" d="M15.228 76.951a4.9 4.9 0 0 1-1.973-.335 5 5 0 0 1-1.683-1.094 5.2 5.2 0 0 1-1.092-1.77 5.3 5.3 0 0 1-.32-2.064v-.31a6.4 6.4 0 0 1 .619-2.853 4.9 4.9 0 0 1 1.718-1.962 4.4 4.4 0 0 1 2.468-.714c1.455 0 2.555.444 3.349 1.384.793.941 1.188 2.219 1.188 3.923v.98h-6.917a3.33 3.33 0 0 0 .876 2.095 2.46 2.46 0 0 0 1.938.759 3.1 3.1 0 0 0 1.478-.335 3.15 3.15 0 0 0 1.152-.996l1.275 1.246a4.4 4.4 0 0 1-1.648 1.456 4.34 4.34 0 0 1-2.428.59m-.263-9.14a1.93 1.93 0 0 0-1.587.67 3.33 3.33 0 0 0-.75 1.916h4.537v-.177a3 3 0 0 0-.618-1.846 2.33 2.33 0 0 0-1.586-.564zm8.543-1.74.088 1.246c.367-.46.836-.83 1.368-1.078a3.76 3.76 0 0 1 1.7-.35c2.191 0 3.305 1.291 3.348 3.834v7.046h-2.366V69.86a2.24 2.24 0 0 0-.439-1.517 1.87 1.87 0 0 0-1.411-.493 2.3 2.3 0 0 0-1.267.323c-.382.23-.691.566-.89.968v7.58h-2.38V66.025zm14.184 7.805a1.13 1.13 0 0 0-.53-.98 4.9 4.9 0 0 0-1.719-.582 8.3 8.3 0 0 1-2.007-.67c-1.188-.581-1.753-1.429-1.753-2.498.004-.45.109-.892.307-1.294a2.95 2.95 0 0 1 .837-1.027 4.47 4.47 0 0 1 2.906-.936 4.6 4.6 0 0 1 3.037.936c.364.288.655.658.85 1.082.195.423.288.887.272 1.354h-2.38a1.52 1.52 0 0 0-.53-1.158 1.88 1.88 0 0 0-1.368-.444c-.45-.014-.895.11-1.275.355a1.18 1.18 0 0 0-.465.999 1.03 1.03 0 0 0 .438.847c.58.306 1.205.517 1.85.626.763.146 1.5.401 2.192.759.48.227.89.58 1.188 1.025.362.617.481 1.35.334 2.051a2.86 2.86 0 0 1-1.128 1.738 5.696 5.696 0 0 1-5.374.4 3.74 3.74 0 0 1-1.586-1.292 3.3 3.3 0 0 1-.575-1.775h2.293a1.66 1.66 0 0 0 .618 1.292c.45.32.994.477 1.543.443a2.43 2.43 0 0 0 1.411-.355.9.9 0 0 0 .451-.342c.11-.16.17-.35.167-.545zm3.568-2.543a6.1 6.1 0 0 1 .618-2.808 4.5 4.5 0 0 1 1.714-1.926 4.8 4.8 0 0 1 2.555-.662 4.6 4.6 0 0 1 1.885.32c.6.238 1.143.601 1.595 1.065a5.62 5.62 0 0 1 1.456 3.7v.582a6.2 6.2 0 0 1-.618 2.809 4.24 4.24 0 0 1-1.719 1.917 4.8 4.8 0 0 1-2.599.67 4.4 4.4 0 0 1-1.956-.352 4.5 4.5 0 0 1-1.612-1.175c-.876-.98-1.315-2.32-1.367-3.993zm2.336.222c-.054.911.176 1.816.658 2.587a2.35 2.35 0 0 0 3.743 0 4.8 4.8 0 0 0 .662-2.764 4.27 4.27 0 0 0-.706-2.587 2.336 2.336 0 0 0-3.261-.493 5 5 0 0 0-.487.444 5.75 5.75 0 0 0-.613 2.813zm14.579-3.257a7 7 0 0 0-.969-.088c-1.1 0-1.806.399-2.192 1.246v7.313h-2.38V66.071h2.245l.043 1.202c.233-.43.578-.787.998-1.031.42-.245.898-.367 1.382-.353.285 0 .567.045.838.133l.044 2.272zm9.888 2.365h-5.698v6.11h-2.468V62.415h9.043v2.006h-6.575v4.282h5.698zm4.712 6.11h-2.38V62.37h2.38zm1.718-5.44a6.1 6.1 0 0 1 .619-2.808 4.5 4.5 0 0 1 1.718-1.926 4.8 4.8 0 0 1 2.555-.67 4.6 4.6 0 0 1 1.885.319c.6.238 1.143.601 1.595 1.065a5.62 5.62 0 0 1 1.456 3.7v.582a6.8 6.8 0 0 1-.575 2.809 4.24 4.24 0 0 1-1.718 1.917 4.8 4.8 0 0 1-2.6.67 4.4 4.4 0 0 1-1.954-.348 4.5 4.5 0 0 1-1.613-1.17 5.8 5.8 0 0 1-1.368-3.993v-.147m2.38.222a4.4 4.4 0 0 0 .662 2.587 2.2 2.2 0 0 0 .829.714c.33.163.697.24 1.065.223.363.024.725-.05 1.05-.215s.601-.413.8-.722a4.8 4.8 0 0 0 .662-2.764 4.27 4.27 0 0 0-.706-2.587 2.336 2.336 0 0 0-3.261-.493 5 5 0 0 0-.487.444 5.3 5.3 0 0 0-.596 2.813zm18.147 1.917 1.674-7.357h2.293l-2.85 10.69H94.2l-2.244-7.358-2.248 7.358h-1.92l-2.906-10.703h2.336l1.718 7.313 2.157-7.313h1.806l2.156 7.357z"/><defs><linearGradient id="b" x1="36.175" x2="65.986" y1="38.461" y2="38.461" gradientUnits="userSpaceOnUse"><stop stop-color="#FF6F00"/><stop offset="1" stop-color="#FFA800"/></linearGradient><linearGradient id="d" x1="36.013" x2="65.823" y1="38.461" y2="38.461" gradientUnits="userSpaceOnUse"><stop stop-color="#FF6F00"/><stop offset="1" stop-color="#FFA800"/></linearGradient></defs></svg>
